X:17
T:WNMSWRKB3- Lord Elcho's Favourite
S:Gows' Strathspey Reels, II
Q:1/4=120
L:1/8
M:6/8
K:Gm
F|(DG)G "tr"G2F|(GB)c dgf|"tr"d2c {B/c/}d2c|BFF"tr"F2F|(DG)G
"tr"G2F|GBc dgf|(db)g fdc|BGG "tr"G2:: f|\
(g2a) feB|cdf (g2b)|fdc ({B/c/}d2 c|BFFF2F|(GB)F (DG)F|\
GBc dgf|(db)g fdc|BGG"tr"G2:|]

